Sedona/img/main/sec1_gorgeous01.svg

<svg width="256" height="29" viewBox="0 0 256 29" fill="none" xmlns="http://www.w3.org/2000/svg">
<path fill-rule="evenodd" clip-rule="evenodd" d="M80.774 0.0899963L77.929 4.967H75.2L74.33 6.401H77.087L71.018 16.784C69.741 18.992 70.642 21.03 73.08 21.03C74.303 21.03 75.618 20.393 76.933 19.409L76.155 20.743H79.201L83.789 12.856C88.433 7.089 90.495 7.836 89.188 10.046L85.268 16.786C83.99 18.996 84.891 21.034 87.329 21.034C89.125 21.034 91.117 19.664 93.022 17.829C93.168 19.686 94.689 21.034 97.112 21.034C100.535 21.034 103.932 18.394 106.428 15.526C106.231 15.123 105.709 14.665 105.302 14.493L105.099 14.719C102.921 17.216 100.135 19.194 98.017 19.194C96.157 19.194 95.053 18.048 96.447 15.639L96.737 15.119C98.683 15.924 102.341 15.55 104.605 11.679L105.042 10.932C106.667 8.179 105.1 6.114 102.632 6.114C100.193 6.114 98.249 7.377 96.972 9.555L94.042 14.52L93.866 14.72C91.689 17.214 89.571 19.192 88.235 19.192C87.569 19.192 87.189 18.732 87.885 17.557L92.24 10.014C93.546 7.749 92.3 6.114 90.616 6.114C89.309 6.114 87.914 6.831 86.406 8.379L91.224 0.0899963H88.205L79.782 14.528L79.612 14.718C77.436 17.214 75.315 19.192 73.979 19.192C73.312 19.192 72.935 18.732 73.633 17.557L80.105 6.399H82.572L83.444 4.966H80.948L83.793 0.0909963L80.774 0.0899963ZM48.465 4.969L51.31 0.0939963H54.329L51.483 4.967H53.982L53.11 6.403H50.645L44.169 17.561C43.472 18.736 43.85 19.196 44.517 19.196C45.852 19.196 47.974 17.217 50.15 14.721L50.306 14.545L51.543 12.455L53.023 9.902C54.765 6.918 56.563 6.002 58.885 6.002C61.731 6.002 63.414 8.955 61.586 12.082L58.741 16.928C60.252 16.899 61.935 16.184 63.299 14.721L63.504 14.493C63.91 14.665 64.432 15.122 64.632 15.526C63.092 17.332 60.248 18.422 58.448 18.422H57.782C54.513 22.506 49.166 21.763 49.172 17.961C47.306 19.73 45.369 21.034 43.615 21.034C41.177 21.034 40.276 18.996 41.554 16.787L47.622 6.404H44.865L45.735 4.969H48.465ZM59.263 10.967C60.291 9.225 59.825 8.02 58.841 7.93C58.076 7.86 56.998 8.466 56.071 10.022L54.62 12.459L52.326 16.387C50.526 19.484 53.983 19.943 55.405 17.533L55.435 17.477C55.26 17.189 55.144 16.844 55.144 16.473C55.144 15.498 55.927 14.694 56.914 14.694H57.059L59.263 10.967ZM102.575 10.936C103.587 9.192 103.055 8.275 102.086 8.332V8.333C101.334 8.377 100.317 9.011 99.554 10.303L97.608 13.66C98.741 14.062 100.688 14.12 102.138 11.682L102.575 10.936ZM146.404 2.869C144.69 4.389 144.546 6.083 145.621 7.459L145.883 7.803L145.821 7.88985C144.492 9.74583 142.718 12.2255 140.773 14.487L140.775 14.49L140.572 14.719C139.207 16.18 137.526 16.899 136.014 16.928L138.857 12.08C140.687 8.954 139.004 6 136.157 6C133.837 6 132.037 6.918 130.297 9.9L128.813 12.453L127.575 14.545L127.421 14.721C124.924 17.561 122.778 19.392 120.396 20.397L127.159 8.983H125.389C125.389 7.749 124.113 6.113 122.225 6.113C120.601 6.113 118.335 7.378 117.057 9.557L112.819 16.784C111.541 18.992 112.441 21.03 114.879 21.03C115.722 21.03 116.739 20.656 117.756 20.026L116.913 21.43C112.849 22.663 110.293 24.298 110.293 26.536C110.293 29.405 114.735 30.007 116.913 26.336L119.205 22.406C121.621 21.663 123.988 20.259 126.445 17.942C126.424 21.759 131.782 22.509 135.055 18.418H135.723C137.523 18.418 140.368 17.329 141.907 15.522C143.356 13.858 144.487 12.367 146.897 9.127L147.302 9.616C147.679 10.103 147.827 10.706 147.477 11.307L144.284 16.786C143.004 18.996 143.905 21.032 146.345 21.032C147.875 21.032 149.549 20.037 151.187 18.61C151.137 19.996 152.074 21.032 153.806 21.032C154.646 21.032 155.663 20.659 156.68 20.028L155.838 21.43C151.773 22.663 149.222 24.298 149.222 26.536C149.222 29.405 153.662 30.006 155.838 26.336L158.13 22.406C160.59 21.648 163 20.2 165.507 17.807C165.643 19.675 167.165 21.032 169.597 21.032C172.055 21.032 174.496 19.669 176.601 17.842C176.484 21.747 181.911 22.545 185.213 18.42H185.881C186.826 18.42 188.056 18.112 189.238 17.567C188.425 19.64 189.172 21.032 190.899 21.032C192.555 21.032 194.412 19.54 195.863 18.164C195.573 19.769 196.53 21.032 198.447 21.032C200.943 21.032 203.817 18.395 206.315 15.526L206.313 15.524C207.668 13.9796 208.896 12.3481 209.883 11.0383L209.883 11.0381C210.143 10.6925 210.387 10.3693 210.611 10.076C210.211 11.1162 210.017 12.435 209.827 13.7278C209.452 16.2827 209.091 18.736 207.185 18.736C206.169 18.736 205.765 17.646 205.765 17.646L203.875 18.621C203.875 18.621 204.426 21.033 207.185 21.033C207.453 21.033 207.697 21.0074 207.959 20.9799L208.025 20.973C208.04 20.973 208.055 20.9662 208.071 20.9595C208.086 20.9527 208.101 20.946 208.116 20.946C211.192 20.546 214.24 18.136 216.504 15.526C216.331 15.067 215.808 14.608 215.374 14.492L215.171 14.721C214.106 15.9533 212.886 17.0423 211.541 17.961C211.916 16.8472 212.113 15.4997 212.326 14.043C212.657 11.7852 213.025 9.26526 214.155 6.947L211.891 5.742C211.66 6.05489 211.379 6.44317 211.056 6.8882C209.633 8.85112 207.41 11.9181 205.185 14.49V14.492L204.982 14.721C202.806 17.217 200.687 19.193 199.351 19.193C198.684 19.193 198.306 18.734 199.004 17.559L205.448 6.401H202.428L197.058 15.666C194.765 17.73 192.996 18.878 192.414 18.619C191.714 18.3277 192.313 17.3433 192.705 16.6988C192.736 16.6486 192.765 16.6005 192.792 16.555L198.685 6.403H195.665L190.931 14.495L190.732 14.721C189.368 16.184 187.685 16.901 186.174 16.931L189.019 12.082C190.847 8.955 189.169 6.002 186.32 6.002C183.997 6.002 182.197 6.92 180.456 9.905L178.974 12.455L177.737 14.545L177.582 14.723C175.406 17.219 172.618 19.196 170.499 19.196C168.641 19.196 167.539 18.05 168.932 15.641L169.222 15.123C171.166 15.927 174.826 15.553 177.089 11.68L177.527 10.934C179.15 8.18 177.585 6.115 175.117 6.115C172.677 6.115 170.73 7.38 169.454 9.559L166.528 14.524L166.353 14.721C163.854 17.561 161.708 19.394 159.325 20.399L166.089 8.983H164.317C164.317 7.749 163.04 6.115 161.153 6.115C159.528 6.115 157.264 7.378 155.986 9.557L153.09 14.494L153.082 14.49L152.879 14.72C150.703 17.215 148.581 19.194 147.245 19.194C146.578 19.194 146.203 18.734 146.899 17.559L149.917 12.339C150.962 10.532 150.468 9.469 149.48 8.293L147.797 6.283C147.362 5.738 147.362 5.137 147.972 4.563L146.404 2.869ZM136.534 10.967C137.561 9.225 137.094 8.019 136.11 7.929V7.93C135.346 7.86 134.27 8.466 133.342 10.022L131.889 12.459L129.597 16.387C127.797 19.484 131.253 19.943 132.675 17.533L132.703 17.477C132.529 17.189 132.413 16.844 132.413 16.473C132.413 15.498 133.197 14.694 134.183 14.694H134.33L136.534 10.967ZM186.268 7.929C187.252 8.019 187.721 9.225 186.694 10.967L184.488 14.694H184.341C183.355 14.694 182.573 15.498 182.573 16.473C182.573 16.844 182.689 17.189 182.862 17.477L182.832 17.533C181.411 19.943 177.957 19.484 179.757 16.387L182.049 12.459L183.5 10.022C184.427 8.466 185.503 7.86 186.268 7.93V7.929ZM175.053 10.936C176.065 9.193 175.536 8.277 174.568 8.334V8.335C173.816 8.379 172.798 9.013 172.036 10.305L170.088 13.66C171.221 14.062 173.167 14.12 174.618 11.682L175.053 10.936ZM122.165 8.535C123.188 8.529 123.843 9.419 123.01 10.935L120.718 14.895C118.888 17.792 117.058 19.195 115.78 19.195C115.113 19.195 114.735 18.736 115.431 17.561L119.643 10.305C120.353 9.088 121.37 8.54 122.165 8.535ZM161.933 10.935C162.766 9.419 162.111 8.529 161.088 8.535C160.293 8.54 159.276 9.088 158.566 10.305L154.356 17.561C153.662 18.736 154.038 19.195 154.705 19.195C155.981 19.195 157.813 17.792 159.641 14.895L161.933 10.935ZM115.75 23.443L115.749 23.4443C113.459 24.3322 112.732 25.2201 112.732 25.994C112.732 26.797 113.748 26.968 114.386 25.85L115.749 23.4443L115.75 23.444V23.443ZM154.674 23.4443L154.675 23.443V23.444L154.674 23.4443ZM154.674 23.4443L153.313 25.85C152.673 26.968 151.657 26.797 151.657 25.994C151.657 25.2201 152.383 24.3322 154.674 23.4443ZM0.0250244 11.831H28.947V13.781H0.0250244V11.831ZM255.977 11.831H227.055V13.781H255.977V11.831Z" fill="#766458"/>
</svg>

<svg width="256" height="29" fill="none" xmlns="http://www.w3.org/2000/svg">
  <path fill-rule="evenodd" clip-rule="evenodd" d="m80.77.09-2.84 4.88H75.2l-.87 1.43h2.76l-6.07 10.38c-1.28 2.21-.38 4.25 2.06 4.25 1.22 0 2.54-.64 3.85-1.62l-.78 1.33h3.05l4.59-7.88c4.64-5.77 6.7-5.02 5.4-2.81l-3.92 6.74c-1.28 2.2-.38 4.24 2.06 4.24 1.8 0 3.79-1.37 5.7-3.2.14 1.86 1.66 3.2 4.08 3.2 3.42 0 6.82-2.64 9.32-5.5-.2-.4-.72-.87-1.13-1.04l-.2.23c-2.18 2.5-4.96 4.47-7.08 4.47-1.86 0-2.97-1.14-1.57-3.55l.29-.52c1.94.8 5.6.43 7.87-3.44l.43-.75c1.63-2.75.06-4.82-2.4-4.82-2.45 0-4.4 1.27-5.67 3.44l-2.93 4.97-.17.2c-2.18 2.5-4.3 4.47-5.64 4.47-.66 0-1.04-.46-.34-1.63L92.23 10c1.3-2.26.06-3.9-1.62-3.9-1.31 0-2.7.72-4.21 2.27L91.22.09H88.2l-8.42 14.44-.17.19c-2.17 2.5-4.3 4.47-5.63 4.47-.67 0-1.05-.46-.35-1.63L80.11 6.4h2.46l.87-1.43h-2.5L83.8.09h-3.02Zm-32.3 4.88L51.3.09h3.02l-2.85 4.88h2.5l-.87 1.43h-2.46l-6.48 11.16c-.7 1.18-.32 1.64.35 1.64 1.33 0 3.45-1.98 5.63-4.48l.16-.18 1.23-2.08 1.48-2.56C54.76 6.92 56.56 6 58.88 6c2.85 0 4.53 2.96 2.7 6.08l-2.84 4.85a6.53 6.53 0 0 0 4.56-2.2l.2-.24c.41.17.93.63 1.13 1.04a9.2 9.2 0 0 1-6.18 2.9h-.67c-3.27 4.08-8.61 3.33-8.6-.47-1.87 1.77-3.81 3.07-5.56 3.07-2.44 0-3.34-2.03-2.07-4.24L47.62 6.4h-2.75l.87-1.43h2.73Zm10.8 6c1.02-1.75.55-2.95-.43-3.04-.76-.07-1.84.54-2.77 2.1l-1.45 2.43-2.3 3.93c-1.8 3.1 1.66 3.55 3.09 1.14l.03-.05c-.18-.3-.3-.64-.3-1 0-.98.79-1.79 1.77-1.79h.15l2.2-3.72Zm43.3-.03c1.02-1.75.49-2.66-.48-2.6-.76.04-1.77.67-2.54 1.96l-1.94 3.36c1.13.4 3.08.46 4.53-1.98l.44-.74Zm43.83-8.07c-1.71 1.52-1.85 3.21-.78 4.59l.26.34-.06.09c-1.33 1.86-3.1 4.34-5.05 6.6l-.2.23a6.54 6.54 0 0 1-4.56 2.2l2.85-4.84c1.83-3.13.14-6.08-2.7-6.08-2.32 0-4.12.92-5.86 3.9l-1.49 2.55-1.23 2.1-.16.17c-2.5 2.84-4.64 4.67-7.02 5.68l6.76-11.42h-1.77c0-1.23-1.28-2.87-3.17-2.87-1.62 0-3.89 1.27-5.16 3.45l-4.24 7.22c-1.28 2.21-.38 4.25 2.06 4.25.84 0 1.86-.37 2.88-1l-.85 1.4c-4.06 1.23-6.62 2.87-6.62 5.1 0 2.88 4.44 3.48 6.62-.2l2.3-3.92a18.44 18.44 0 0 0 7.23-4.47c-.02 3.82 5.34 4.57 8.62.48h.66a9.2 9.2 0 0 0 6.19-2.9c1.45-1.66 2.58-3.15 4.99-6.4l.4.5c.38.48.53 1.09.18 1.69l-3.2 5.48c-1.28 2.2-.38 4.24 2.06 4.24 1.53 0 3.2-1 4.85-2.42-.05 1.39.88 2.42 2.62 2.42a5.8 5.8 0 0 0 2.87-1l-.84 1.4c-4.07 1.23-6.62 2.87-6.62 5.1 0 2.88 4.44 3.48 6.62-.2l2.29-3.92c2.46-.76 4.87-2.21 7.38-4.6.13 1.87 1.66 3.22 4.09 3.22 2.46 0 4.9-1.36 7-3.19-.12 3.9 5.31 4.7 8.61.58h.67c.95 0 2.18-.3 3.36-.85-.81 2.07-.07 3.46 1.66 3.46 1.66 0 3.51-1.49 4.96-2.87-.29 1.6.67 2.87 2.59 2.87 2.5 0 5.37-2.64 7.87-5.5 1.35-1.55 2.58-3.18 3.56-4.5l.73-.95c-.4 1.04-.6 2.36-.78 3.65-.38 2.55-.74 5-2.65 5-1.01 0-1.42-1.08-1.42-1.08l-1.88.97s.55 2.41 3.3 2.41c.27 0 .52-.02.78-.05h.06l.05-.02.05-.01c3.07-.4 6.12-2.81 8.38-5.42a1.9 1.9 0 0 0-1.13-1.04l-.2.23a18.85 18.85 0 0 1-3.63 3.24c.38-1.11.57-2.46.79-3.92.33-2.25.7-4.77 1.82-7.1l-2.26-1.2-.83 1.15c-1.43 1.96-3.65 5.03-5.88 7.6l-.2.23c-2.17 2.5-4.3 4.47-5.63 4.47-.67 0-1.04-.46-.35-1.63l6.45-11.16h-3.02l-5.37 9.27c-2.3 2.06-4.06 3.2-4.65 2.95-.7-.3-.1-1.28.3-1.92l.08-.14 5.9-10.16h-3.03l-4.73 8.1-.2.22a6.54 6.54 0 0 1-4.56 2.21l2.85-4.85c1.83-3.13.15-6.08-2.7-6.08-2.32 0-4.12.92-5.86 3.9l-1.49 2.55-1.23 2.1-.16.17c-2.17 2.5-4.96 4.48-7.08 4.48-1.86 0-2.96-1.15-1.57-3.56l.3-.52c1.94.8 5.6.43 7.86-3.44l.44-.75c1.62-2.75.06-4.81-2.41-4.81-2.44 0-4.39 1.26-5.67 3.44l-2.92 4.96-.18.2c-2.5 2.84-4.64 4.67-7.03 5.68l6.77-11.42h-1.77c0-1.23-1.28-2.87-3.17-2.87-1.62 0-3.89 1.27-5.16 3.45l-2.9 4.93-.21.23c-2.18 2.5-4.3 4.47-5.63 4.47-.67 0-1.05-.46-.35-1.63l3.02-5.22c1.04-1.8.55-2.87-.44-4.05l-1.68-2c-.44-.55-.44-1.15.17-1.73l-1.57-1.7Zm-9.87 8.1c1.03-1.75.56-2.95-.42-3.04-.76-.07-1.84.54-2.77 2.1l-1.45 2.43-2.3 3.93c-1.8 3.1 1.66 3.55 3.09 1.14l.02-.05a1.95 1.95 0 0 1-.29-1c0-.98.79-1.79 1.77-1.79h.15l2.2-3.72Zm49.74-3.04c.98.09 1.45 1.3.42 3.04l-2.2 3.72h-.15c-.99 0-1.77.8-1.77 1.78 0 .37.12.72.3 1l-.04.06c-1.42 2.41-4.87 1.95-3.07-1.14l2.29-3.93 1.45-2.44c.93-1.55 2-2.16 2.77-2.09Zm-11.22 3c1.01-1.74.49-2.65-.48-2.6-.75.05-1.77.68-2.53 1.97l-1.95 3.36c1.13.4 3.08.46 4.53-1.98l.43-.74Zm-52.89-2.4c1.03 0 1.68.89.85 2.4l-2.3 3.96c-1.82 2.9-3.65 4.3-4.93 4.3-.67 0-1.05-.45-.35-1.63l4.21-7.25c.71-1.22 1.73-1.77 2.53-1.78Zm39.77 2.4c.84-1.51.18-2.4-.84-2.4-.8.01-1.81.56-2.52 1.78l-4.21 7.25c-.7 1.18-.32 1.64.34 1.64 1.28 0 3.11-1.4 4.94-4.3l2.3-3.96Zm-46.18 12.51c-2.3.9-3.02 1.78-3.02 2.55 0 .8 1.02.98 1.66-.14l1.36-2.4Zm38.92 0Zm0 0-1.36 2.41c-.64 1.12-1.65.95-1.65.14 0-.77.72-1.66 3.01-2.55ZM.03 11.84h28.92v1.94H.03v-1.95Zm255.95 0h-28.92v1.94h28.92v-1.95Z" fill="#766458"/>
</svg>
